packages/react-icons/icons/thumb-down-filled.svg

<svg width="24" height="24" viewBox="0 0 24 24" xmlns="http://www.w3.org/2000/svg">
<path fill-rule="evenodd" clip-rule="evenodd" d="M16.5784 15.7081L11.0484 21.2481C10.4684 21.8381 9.52842 21.8381 8.93842 21.2581C8.57842 20.8981 8.42842 20.3881 8.52842 19.8881L9.47842 15.3081H3.82842C1.67842 15.3081 0.228418 13.1081 1.07842 11.1281L4.33842 3.51811C4.64842 2.78811 5.36842 2.30811 6.16842 2.30811H15.1584C16.2584 2.30811 17.1584 3.20811 17.1584 4.30811V14.2981C17.1584 14.8281 16.9484 15.3381 16.5784 15.7081ZM19.1684 4.30811C19.1684 3.20811 20.0684 2.30811 21.1684 2.30811C22.2684 2.30811 23.1684 3.20811 23.1684 4.30811V12.3081C23.1684 13.4081 22.2684 14.3081 21.1684 14.3081C20.0684 14.3081 19.1684 13.4081 19.1684 12.3081V4.30811Z" />
</svg>

<svg xmlns="http://www.w3.org/2000/svg" width="24" height="24"><path fill-rule="evenodd" d="m16.578 15.708-5.53 5.54c-.58.59-1.52.59-2.11.01-.36-.36-.51-.87-.41-1.37l.95-4.58h-5.65c-2.15 0-3.6-2.2-2.75-4.18l3.26-7.61a1.99 1.99 0 0 1 1.83-1.21h8.99c1.1 0 2 .9 2 2v9.99c0 .53-.21 1.04-.58 1.41Zm2.59-11.4c0-1.1.9-2 2-2s2 .9 2 2v8c0 1.1-.9 2-2 2s-2-.9-2-2v-8Z" clip-rule="evenodd"/></svg>
